X:1
T:Grablied
T:Grablied
T:Vierstimmiger Trauerchor für Männerstimmen V ierstimmiger Satz nach Franz Schuberts Lied Der Tod und das Mädchen aus dem d-moll-Quartett 
T:Peter Cornelius Op. 9 Nr. 4 
T:Peter Cornelius
C:Peter Cornelius Op. 9 Nr. 4
Z:Peter Cornelius
%%score [ 1 2 3 4 ]
L:1/8
Q:1/4=70
M:2/4
K:Ab
V:1 treble-8 nm="Tenor I."
V:2 treble-8 nm="Tenor II."
V:3 bass nm="Bass I."
V:4 bass nm="Bass II."
V:1
!p!"^Gemessen, nicht schleppend.\nModerato, non strascinato.\n" c2 d B | (cf) g a | g2 f =e | %3
w: Pil- ger auf|Er- * den, so|ra- ste am|
w: Pil- ger auf|Ster- * nen, un-|sterb- li- che|
 f2 A B | c2 d B | (cf) g a | f2 =e2 | f3 z |!mf! f2 f f | !>!a2 !>!a2 | f2 f g | !>!c2 !>!c2 | %12
w: Zie- le, Hier|la- be dich|Frie- * den nach|lan- ger|Fahrt.|Was auch dein|Herz- weh,|was auch dein|Leid war,|
w: See- le, Du|Schwe- best zum|Him- * mel auf|gold’- nem|Pfad.|Ba- dest im|Glanz- meer|gött- li- cher|Klar- heit,|
 f2 f f | !>!a2!>(! !>!a2!>)! |!p! e2"^dim." e e | e3 z |!pp! f2 e d | e2 e f | _g2 f e | f2 f f | %20
w: Hei- len- den|Bal- sam|gab dir der|Tod.|Pil- ger af|Er- den, vom|Wan- dern er-|mat- tet, Nun|
w: Nur, was dem|Staub war,|gabst du dem|Staub.|Pil- ger auf|Ster- nen, die|Trä- ne der|Sehn- sucht Ge-|
!<(! f2 f f | f2 f f | (f2!<)! =a3/2)!>(! g/!>)! |!p! !fermata!f3 z |] %24
w: ru- he im|Scho- ße der|Er- * de|aus.|
w: lei- te zur|e- wi- gen|Hei- * mat|dich.|
V:2
!p! f2 f f | f2 c c | c2 c c | c2 f f | f2 f f | f2 c c | c2 c2 | c3 z |!mf! d2 d d | !>!f2 !>!f2 | %10
w: Pil- ger auf|Er- den, so|ra- ste am|Zie- le, Hier|la- be dich|Frie- den nach|lan- ger|Fahrt.|Was auch dein|Herz- weh,|
w: Pil- ger auf|Ster- nen, un-|sterb- li- che|See- le, Du|Schwe- best zum|Him- mel auf|gold’- nem|Pfad.|Ba- dest im|Glanz- meer|
 d2 d d | !>!G2 !>!G2 | A2 A d | !>!c2!>(! !>!_c2!>)! |!p! B2"^dim." =c d | c3 z |!pp! d2 c d | %17
w: was auch dein|Leid war,|Hei- len- den|Bal- sam|gab dir der|Tod.|Pil- ger af|
w: gött- li- cher|Klar- heit,|Nur, was dem|Staub war,|gabst du dem|Staub.|Pil- ger auf|
 c2 c d | c2 d c | d2 A A |!<(! A2 A A | A2 A A | (=A!<)!c =e3/2)!>(! c/!>)! |!p! !fermata!c3 z |] %24
w: Er- den, vom|Wan- dern er-|mat- tet, Nun|ru- he im|Scho- ße der|Er- * * de|aus.|
w: Ster- nen, die|Trä- ne der|Sehn- sucht Ge-|lei- te zur|e- wi- gen|Hei- * * mat|dich.|
V:3
!p! A,2 B, G, | A,2 B, C | B,2 A, G, | A,2 F, G, | A,2 B, G, | A,2 B, C | B,2 B,2 | A,3 z | %8
w: Pil- ger auf|Er- den, so|ra- ste am|Zie- le, Hier|la- be dich|Frie- den nach|lan- ger|Fahrt.|
w: Pil- ger auf|Ster- nen, un-|sterb- li- che|See- le, Du|Schwe- best zum|Him- mel auf|gold’- nem|Pfad.|
!mf! A,2 A, A, | !>!C2 !>!C2 | B,2 B, B, | !>!=E,2 !>!E,2 | F,2 F, F, | !>!F,2!>(! !>!A,2!>)! | %14
w: Was auch dein|Herz- weh,|was auch dein|Leid war,|Hei- len- den|Bal- sam|
w: Ba- dest im|Glanz- meer|gött- li- cher|Klar- heit,|Nur, was dem|Staub war,|
!p! A,2"^dim." G, G, | A,2 A, A, |!pp! A,2 A, A, | A,2 A, A, | A,2 A, A, | A,2 A, C |!<(! =D2 C C | %21
w: gab dir der|Tod. Pil- ger,|Pil- ger af|Er- den, vom|Wan- dern er-|mat- tet, Nun|ru- he im|
w: gabst du dem|Staub. Pil- ger,|Pil- ger auf|Ster- nen, die|Trä- ne der|Sehn- sucht Ge-|lei- te zur|
 =B,2 C =D | (C!<)!=A, B,3/2)!>(! B,/!>)! |!p! !fermata!=A,3 z |] %24
w: Scho- ße der|Er- * * de|aus.|
w: e- wi- gen|Hei- * * mat|dich.|
V:4
!p! F,2 F, F, | F,2 F, F, | C,2 C, C, | F,2 F, F, | F,2 F, F, | F,2 F, F, | C,2 C,2 | F,3 z | %8
w: Pil- ger auf|Er- den, so|ra- ste am|Zie- le, Hier|la- be dich|Frie- den nach|lan- ger|Fahrt.|
w: Pil- ger auf|Ster- nen, un-|sterb- li- che|See- le, Du|Schwe- best zum|Him- mel auf|gold’- nem|Pfad.|
!mf! D,2 D, D, | !>!A,,2 !>!A,,2 | B,,2 B,, B,, | !>!C,2 !>!C,2 | D,2 C, B,, | %13
w: Was auch dein|Herz- weh,|was auch dein|Leid war,|Hei- len- den|
w: Ba- dest im|Glanz- meer|gött- li- cher|Klar- heit,|Nur, was dem|
 !>!A,,2!>(! !>!=D,2!>)! |!p! E,2"^dim." E, E, | A,,3 z |!pp! D,2 A,, F,, | A,,2 A,, D, | %18
w: Bal- sam|gab dir der|Tod.|Pil- ger af|Er- den, vom|
w: Staub war,|gabst du dem|Staub.|Pil- ger auf|Ster- nen, die|
 E,2 D, A,, | D,2 D, C, |!<(! =B,,2 C, C, | =D,2 C, =B,,!<)! | C,7/2!>(! C,/!>)! | %23
w: Wan- dern er-|mat- tet, Nun|ru- he im|Scho- ße der|Er- de|
w: Trä- ne der|Sehn- sucht Ge-|lei- te zur|e- wi- gen|Hei- mat|
!p! !fermata!F,3 z |] %24
w: aus.|
w: dich.|

